X: 2464
T: Balls To Hall
R: jig
M: 6/8
K: Eminor
|:GEE AEE|B2B cBA|B2B BAG|FGF DEF|
GEE AEE|B2B cBA|B2B B2A|1 FED E2F:|2 FED E3||
K: Emaj
|:Bee ~e2f|g3 gfe|c2a a2g|f2f fec|
[1 Bee ~e2f|g3 g2a|bee aee|gag fec:|
[2 Bee ~e2f|g3 g3|aef =dAB|FEF =DEF||

